packages/core/src/svgs/grai.svg

<svg width="24" height="24" viewBox="0 0 24 24" fill="none" xmlns="http://www.w3.org/2000/svg">
<g clip-path="url(#clip0_31_11058)">
<path d="M0 0H24V24H0V0Z" fill="#A101F8"/>
<path d="M16.2 14.1426C15.8491 14.831 15.3343 15.4226 14.701 15.8654C14.0677 16.3081 13.3353 16.5884 12.5682 16.6815C11.8011 16.7746 11.0229 16.6778 10.302 16.3995C9.58119 16.1212 8.9398 15.6699 8.43432 15.0855C8.30956 14.9313 8.1532 14.8056 7.97578 14.7169C7.79835 14.6281 7.60398 14.5785 7.40575 14.5712C6.56146 14.5712 6.00004 15.4283 6.50575 16.1012C7.25643 17.1068 8.26867 17.8872 9.43222 18.3572C10.5958 18.8273 11.866 18.969 13.1045 18.767C14.3431 18.565 15.5025 18.027 16.4564 17.2116C17.4102 16.3962 18.1221 15.3347 18.5143 14.1426H19.2858C19.5131 14.1426 19.7311 14.0523 19.8918 13.8916C20.0526 13.7308 20.1429 13.5128 20.1429 13.2855C20.1429 13.0581 20.0526 12.8401 19.8918 12.6794C19.7311 12.5186 19.5131 12.4283 19.2858 12.4283H15.4286C15.2013 12.4283 14.9833 12.5186 14.8225 12.6794C14.6618 12.8401 14.5715 13.0581 14.5715 13.2855C14.5715 13.5128 14.6618 13.7308 14.8225 13.8916C14.9833 14.0523 15.2013 14.1426 15.4286 14.1426H16.2ZM16.5943 9.42833C16.1958 9.42833 15.8272 9.21833 15.5657 8.91405C15.0603 8.3296 14.4189 7.87837 13.698 7.60006C12.9772 7.32175 12.199 7.22491 11.4319 7.31804C10.6648 7.41117 9.93237 7.69143 9.29906 8.13415C8.66575 8.57687 8.15097 9.16848 7.80004 9.8569H8.57146C8.79879 9.8569 9.01681 9.94721 9.17756 10.108C9.3383 10.2687 9.42861 10.4867 9.42861 10.714C9.42861 10.9414 9.3383 11.1594 9.17756 11.3201C9.01681 11.4809 8.79879 11.5712 8.57146 11.5712H4.71432C4.48699 11.5712 4.26897 11.4809 4.10823 11.3201C3.94748 11.1594 3.85718 10.9414 3.85718 10.714C3.85718 10.4867 3.94748 10.2687 4.10823 10.108C4.26897 9.94721 4.48699 9.8569 4.71432 9.8569H5.48575C5.87799 8.66487 6.58983 7.60333 7.54372 6.78792C8.49761 5.97251 9.65698 5.4345 10.8955 5.23249C12.1341 5.03049 13.4043 5.17224 14.5679 5.6423C15.7314 6.11236 16.7436 6.8927 17.4943 7.89833C18 8.57119 17.4429 9.42833 16.5943 9.42833Z" fill="#F0F3FA"/>
</g>
<defs>
<clipPath id="clip0_31_11058">
<rect width="24" height="24" fill="white"/>
</clipPath>
</defs>
</svg>

<svg xmlns="http://www.w3.org/2000/svg" width="24" height="24" fill="none" viewBox="0 0 24 24"><g clip-path="url(#a)"><path fill="#A101F8" d="M0 0h24v24H0z"/><path fill="#F0F3FA" d="M16.2 14.143a4.715 4.715 0 0 1-7.766.942 1.39 1.39 0 0 0-1.028-.514c-.845 0-1.406.857-.9 1.53a6.857 6.857 0 0 0 12.008-1.958h.772a.857.857 0 1 0 0-1.715h-3.857a.857.857 0 0 0 0 1.715zm.394-4.715c-.398 0-.767-.21-1.028-.514a4.713 4.713 0 0 0-7.766.943h.771a.857.857 0 1 1 0 1.714H4.714a.857.857 0 1 1 0-1.714h.772a6.857 6.857 0 0 1 12.008-1.959c.506.673-.051 1.53-.9 1.53"/></g><defs><clipPath id="a"><path fill="#fff" d="M0 0h24v24H0z"/></clipPath></defs></svg>
